!!!OTL@@DE: Der Tod von Basel
!!!COM: Volksweise
!!!CDT: 1807
!!!OMD: Allegretto
!!!ONB: Volkslied
!!!OCL: Erk, Ludwig
!!!GCO: Deutscher Liederschatz, Band 2
**kern	**kern	**kern
*staff3	*staff2	*staff1
*Ipiano	*Ipiano	*Ivox
*>[A,A,B]	*>[A,A,B]	*>[A,A,B]
*>A	*>A	*>A
*clefF4	*clefG2	*clefG2
*k[b-]	*k[b-]	*k[b-]
*F:	*F:	*F:
*M2/4	*M2/4	*M2/4
*MM112	*MM112	*MM112
8r	8c/	8c/
=1	=1	=1
8FF/	8A/ 8c/ 8f/L	8f/
8r	8c/ 8f/ 8a/	8a/
8C/	8c/ 8f/ 8a/	8a/
8r	8B-/ 8e/ 8g/J	8g/
=2	=2	=2
8F\	8B-/ 8e/ 8g/L	8g/
8r	8A/ 8c/ 8f/	8f/
8FF/L	8A/ 8c/ 8f/	8f/
8C/J	8c/ 8e/ 8g/J	8g/
=3	=3	=3
8F\	8c/ 8f/ 8a/L	8a/
8r	8a/ 8cc/	8cc\
8F\L	8a/ 8cc/	8cc\
8A\J	8f/ 8a/J	8a/
=4	=4	=4
4c\	4e/ 4g/	4g/
8r	8r	8r
=:|!	=:|!	=:|!
*>B	*>B	*>B
8c\	8e/ 8g/	8g/
=5	=5	=5
4F\ 4c\	8f/ 8a/L	8a/
.	8a/ 8cc/	8cc\
4F\ 4c\	8a/ 8cc/	8cc\
.	8a/ 8cc/J	8cc\
=6	=6	=6
4F\ 4c\	8a/ 8cc/L	4cc\
.	8f/	.
4FF/ 4F/	8f/ 8a/	4a/
.	8c/J	.
=7	=7	=7
4BB-\ 4B-\	8dd\ 8ff\L	4ff\
.	8f\	.
4D\ 4B-\	8b-\ 8dd\	4dd\
.	8f\J	.
=8	=8	=8
4.F\ 4.c\	8a/ 8cc/L	4cc\
.	8f/	.
.	8f/ 8a/	8a/
8F\ 8c\	8a/ 8cc/J	8cc\
=9	=9	=9
*^	*	*
8r	2C\	8b-/L	8b-\
8G/ 8B-/L	.	8g/	8g/
8G/ 8B-/	.	8f/	8f/
8G/ 8B-/J	.	8e/J	8e/
=10	=10	=10	=10
*	*	*^	*
8A/L	2F\	8f/L	4.f\	(8f/L
8c/	.	8a/	.	8a/
8A/	.	8cc/	.	8cc/J)
8c/J	.	8a/J	8f\	8a/
*	*	*v	*v	*
=11	=11	=11	=11
8r	2C\	8b-/L	8b-\
8G/ 8B-/L	.	8g/	8g/
8G/ 8B-/	.	8f/	8f/
8G/ 8B-/J	.	8e/J	8e/
*v	*v	*	*
=12	=12	=12
4F\ 4A\	4f/	4f/
8FF/	8r	8r
==	==	==
*-	*-	*-
!!!ENC: Craig Stuart Sapp
!!!END: 2004/05/19/
!!!EFL: 204/600
